; G-Code generated by Simplify3D(R) Version 4.0.0
; Oct 10, 2018 at 8:26:51 PM
; Settings Summary
;   processName,Process1
;   applyToModels,AINA,BASEM,FIRAS
;   profileName,pla (modified)
;   profileVersion,2018-05-13 20:19:31
;   baseProfile,
;   printMaterial,
;   printQuality,
;   printExtruders,
;   extruderName,Primary Extruder
;   extruderToolheadNumber,0
;   extruderDiameter,0.4
;   extruderAutoWidth,1
;   extruderWidth,0.48
;   extrusionMultiplier,0.95
;   extruderUseRetract,1
;   extruderRetractionDistance,3
;   extruderExtraRestartDistance,0
;   extruderRetractionZLift,0
;   extruderRetractionSpeed,1800
;   extruderUseCoasting,1
;   extruderCoastingDistance,0.2
;   extruderUseWipe,0
;   extruderWipeDistance,5
;   primaryExtruder,0
;   layerHeight,0.2
;   topSolidLayers,2
;   bottomSolidLayers,0
;   perimeterOutlines,1
;   printPerimetersInsideOut,1
;   startPointOption,2
;   startPointOriginX,0
;   startPointOriginY,0
;   sequentialIslands,0
;   spiralVaseMode,0
;   firstLayerHeightPercentage,90
;   firstLayerWidthPercentage,100
;   firstLayerUnderspeed,0.5
;   useRaft,0
;   raftExtruder,0
;   raftTopLayers,2
;   raftBaseLayers,10
;   raftOffset,3
;   raftSeparationDistance,0.14
;   raftTopInfill,100
;   aboveRaftSpeedMultiplier,0.3
;   useSkirt,1
;   skirtExtruder,0
;   skirtLayers,1
;   skirtOutlines,8
;   skirtOffset,3
;   usePrimePillar,0
;   primePillarExtruder,999
;   primePillarWidth,12
;   primePillarLocation,7
;   primePillarSpeedMultiplier,1
;   useOozeShield,0
;   oozeShieldExtruder,999
;   oozeShieldOffset,2
;   oozeShieldOutlines,1
;   oozeShieldSidewallShape,1
;   oozeShieldSidewallAngle,30
;   oozeShieldSpeedMultiplier,1
;   infillExtruder,0
;   internalInfillPattern,Rectilinear
;   externalInfillPattern,Rectilinear
;   infillPercentage,0
;   outlineOverlapPercentage,15
;   infillExtrusionWidthPercentage,100
;   minInfillLength,5
;   infillLayerInterval,1
;   internalInfillAngles,0
;   overlapInternalInfillAngles,0
;   externalInfillAngles,45,-45
;   generateSupport,0
;   supportExtruder,0
;   supportInfillPercentage,30
;   supportExtraInflation,0
;   supportBaseLayers,0
;   denseSupportExtruder,0
;   denseSupportLayers,0
;   denseSupportInfillPercentage,80
;   supportLayerInterval,1
;   supportHorizontalPartOffset,0.3
;   supportUpperSeparationLayers,1
;   supportLowerSeparationLayers,1
;   supportType,0
;   supportGridSpacing,2
;   maxOverhangAngle,50
;   supportAngles,45
;   temperatureName,Primary Extruder,heatbed
;   temperatureNumber,0,0
;   temperatureSetpointCount,1,1
;   temperatureSetpointLayers,1,1
;   temperatureSetpointTemperatures,215,50
;   temperatureStabilizeAtStartup,1,1
;   temperatureHeatedBed,0,1
;   temperatureRelayBetweenLayers,0,0
;   temperatureRelayBetweenLoops,0,0
;   fanLayers,1,2
;   fanSpeeds,0,100
;   blipFanToFullPower,0
;   adjustSpeedForCooling,1
;   minSpeedLayerTime,15
;   minCoolingSpeedSlowdown,20
;   increaseFanForCooling,0
;   minFanLayerTime,45
;   maxCoolingFanSpeed,100
;   increaseFanForBridging,0
;   bridgingFanSpeed,100
;   use5D,1
;   relativeEdistances,0
;   allowEaxisZeroing,1
;   independentExtruderAxes,0
;   includeM10123,0
;   stickySupport,1
;   applyToolheadOffsets,0
;   gcodeXoffset,0
;   gcodeYoffset,0
;   gcodeZoffset,0
;   overrideMachineDefinition,0
;   machineTypeOverride,0
;   strokeXoverride,200
;   strokeYoverride,200
;   strokeZoverride,200
;   originOffsetXoverride,0
;   originOffsetYoverride,0
;   originOffsetZoverride,0
;   homeXdirOverride,-1
;   homeYdirOverride,-1
;   homeZdirOverride,-1
;   flipXoverride,1
;   flipYoverride,-1
;   flipZoverride,1
;   toolheadOffsets,0,0|0,0|0,0|0,0|0,0|0,0
;   overrideFirmwareConfiguration,0
;   firmwareTypeOverride,RepRap (Marlin/Repetier/Sprinter)
;   GPXconfigOverride,r2
;   baudRateOverride,115200
;   overridePrinterModels,0
;   printerModelsOverride
;   startingGcode,G28 ; home all axes,G29 ;start auto-level
;   layerChangeGcode,
;   retractionGcode,
;   toolChangeGcode,
;   endingGcode,M104 S0 ; turn off extruder,M140 S0 ; turn off bed,G28 X0 ; home X axis,M84 ; disable motors
;   exportFileFormat,gcode
;   celebration,0
;   celebrationSong,Random Song
;   postProcessing,
;   defaultSpeed,3600
;   outlineUnderspeed,0.5
;   solidInfillUnderspeed,0.8
;   supportUnderspeed,0.8
;   rapidXYspeed,3600
;   rapidZspeed,1002
;   minBridgingArea,50
;   bridgingExtraInflation,0
;   bridgingExtrusionMultiplier,1
;   bridgingSpeedMultiplier,1
;   useFixedBridgingAngle,0
;   fixedBridgingAngle,0
;   applyBridgingToPerimeters,0
;   filamentDiameters,1.75|1.75|1.75|1.75|1.75|1.75
;   filamentPricesPerKg,46|46|46|46|46|46
;   filamentDensities,1.25|1.25|1.25|1.25|1.25|1.25
;   useMinPrintHeight,0
;   minPrintHeight,0
;   useMaxPrintHeight,0
;   maxPrintHeight,10
;   useDiaphragm,0
;   diaphragmLayerInterval,20
;   robustSlicing,1
;   mergeAllIntoSolid,0
;   onlyRetractWhenCrossingOutline,1
;   retractBetweenLayers,1
;   useRetractionMinTravel,0
;   retractionMinTravel,3
;   retractWhileWiping,0
;   onlyWipeOutlines,1
;   avoidCrossingOutline,0
;   maxMovementDetourFactor,3
;   toolChangeRetractionDistance,12
;   toolChangeExtraRestartDistance,-0.5
;   toolChangeRetractionSpeed,600
;   externalThinWallType,0
;   internalThinWallType,2
;   thinWallAllowedOverlapPercentage,50
;   singleExtrusionMinLength,1
;   singleExtrusionMinPrintingWidthPercentage,50
;   singleExtrusionMaxPrintingWidthPercentage,200
;   singleExtrusionEndpointExtension,0.2
;   horizontalSizeCompensation,0
G90
M82
M106 S0
M140 S50
M190 S50
M104 S215 T0
M109 S215 T0
G28 ; home all axes
G29 ;start auto-level
G92 E0
G1 E-3.0000 F1800
G1 Z0.180 F1002
; process Process1
; layer 1, Z = 0.180
T0
; tool H0.200 W0.480
; skirt
G1 X75.797 Y43.437 F3600
G1 E0.0000 F540
G92 E0
G1 X77.153 Y40.972 E0.1067 F1800
G1 X77.210 Y40.874 E0.1110
G1 X77.372 Y40.620 E0.1224
G1 X77.435 Y40.526 E0.1267
G1 X79.089 Y38.250 E0.2334
G1 X79.158 Y38.161 E0.2376
G1 X79.351 Y37.928 E0.2491
G1 X79.425 Y37.843 E0.2534
G1 X81.351 Y35.793 E0.3600
G1 X81.431 Y35.713 E0.3643
G1 X81.651 Y35.506 E0.3758
G1 X81.736 Y35.431 E0.3801
G1 X83.904 Y33.638 E0.4867
G1 X83.993 Y33.569 E0.4910
G1 X84.237 Y33.392 E0.5025
G1 X84.331 Y33.328 E0.5067
G1 X86.706 Y31.820 E0.6134
G1 X86.803 Y31.763 E0.6177
G1 X87.068 Y31.618 E0.6291
G1 X87.168 Y31.566 E0.6334
G1 X89.714 Y30.368 E0.7401
G1 X89.818 Y30.323 E0.7444
G1 X90.098 Y30.212 E0.7558
G1 X90.205 Y30.174 E0.7601
G1 X92.880 Y29.305 E0.8668
G1 X92.989 Y29.273 E0.8711
G1 X93.281 Y29.198 E0.8825
G1 X93.391 Y29.173 E0.8868
G1 X96.155 Y28.646 E0.9935
G1 X96.267 Y28.629 E0.9978
G1 X96.566 Y28.591 E1.0092
G1 X96.678 Y28.580 E1.0135
G1 X99.486 Y28.404 E1.1202
G1 X99.599 Y28.400 E1.1244
G1 X99.901 Y28.400 E1.1359
G1 X100.014 Y28.404 E1.1402
G1 X102.822 Y28.580 E1.2468
G1 X102.934 Y28.591 E1.2511
G1 X103.233 Y28.629 E1.2626
G1 X103.345 Y28.646 E1.2669
G1 X106.109 Y29.173 E1.3735
G1 X106.219 Y29.198 E1.3778
G1 X106.511 Y29.273 E1.3893
G1 X106.620 Y29.305 E1.3935
G1 X109.295 Y30.174 E1.5002
G1 X109.402 Y30.212 E1.5045
G1 X109.682 Y30.323 E1.5159
G1 X109.786 Y30.368 E1.5202
G1 X112.332 Y31.566 E1.6269
G1 X112.432 Y31.618 E1.6312
G1 X112.697 Y31.763 E1.6426
G1 X112.794 Y31.820 E1.6469
G1 X115.170 Y33.328 E1.7536
G1 X115.263 Y33.392 E1.7579
G1 X115.507 Y33.569 E1.7693
G1 X115.596 Y33.638 E1.7736
G1 X117.764 Y35.431 E1.8803
G1 X117.849 Y35.506 E1.8846
G1 X118.069 Y35.713 E1.8960
G1 X118.149 Y35.793 E1.9003
G1 X120.074 Y37.843 E2.0069
G1 X120.148 Y37.927 E2.0112
G1 X120.339 Y38.157 E2.0225
G1 X120.408 Y38.245 E2.0267
G1 X122.029 Y40.472 E2.1312
G1 X122.092 Y40.565 E2.1354
G1 X122.253 Y40.818 E2.1468
G1 X122.311 Y40.915 E2.1511
G1 X123.700 Y43.431 E2.2600
G1 X123.753 Y43.534 E2.2645
G1 X123.885 Y43.815 E2.2762
G1 X123.931 Y43.922 E2.2806
G1 X124.985 Y46.599 E2.3897
G1 X125.023 Y46.705 E2.3940
G1 X125.115 Y46.990 E2.4054
G1 X125.146 Y47.098 E2.4096
G1 X125.827 Y49.762 E2.5139
G1 X125.851 Y49.871 E2.5181
G1 X125.907 Y50.164 E2.5294
G1 X125.925 Y50.274 E2.5336
G1 X126.276 Y53.041 E2.6394
G1 X126.286 Y53.154 E2.6437
G1 X126.305 Y53.455 E2.6551
G1 X126.309 Y53.568 E2.6594
G1 X126.311 Y56.403 E2.7669
G1 X126.307 Y56.517 E2.7712
G1 X126.288 Y56.820 E2.7827
G1 X126.278 Y56.933 E2.7870
G1 X125.925 Y59.724 E2.8937
G1 X125.907 Y59.836 E2.8980
G1 X125.851 Y60.132 E2.9094
G1 X125.826 Y60.242 E2.9137
G1 X125.128 Y62.962 E3.0202
G1 X125.096 Y63.072 E3.0245
G1 X125.002 Y63.361 E3.0361
G1 X124.963 Y63.469 E3.0404
G1 X123.906 Y66.131 E3.1490
G1 X123.861 Y66.234 E3.1533
G1 X123.732 Y66.507 E3.1647
G1 X123.681 Y66.607 E3.1690
G1 X122.345 Y69.032 E3.2740
G1 X122.288 Y69.129 E3.2782
G1 X122.127 Y69.382 E3.2896
G1 X122.064 Y69.475 E3.2938
G1 X120.411 Y71.750 E3.4005
G1 X120.342 Y71.839 E3.4048
G1 X120.150 Y72.072 E3.4162
G1 X120.075 Y72.157 E3.4205
G1 X118.149 Y74.207 E3.5272
G1 X118.069 Y74.287 E3.5315
G1 X117.849 Y74.494 E3.5429
G1 X117.764 Y74.569 E3.5472
G1 X115.596 Y76.362 E3.6539
G1 X115.507 Y76.431 E3.6581
G1 X115.263 Y76.609 E3.6696
G1 X115.169 Y76.672 E3.6739
G1 X113.865 Y77.500 E3.7324
G1 X115.159 Y78.320 E3.7905
G1 X115.254 Y78.385 E3.7949
G1 X115.502 Y78.565 E3.8065
G1 X115.592 Y78.636 E3.8109
G1 X117.813 Y80.479 E3.9203
G1 X117.897 Y80.553 E3.9245
G1 X118.114 Y80.757 E3.9358
G1 X118.193 Y80.836 E3.9400
G1 X120.033 Y82.795 E4.0420
G1 X120.107 Y82.879 E4.0462
G1 X120.296 Y83.107 E4.0574
G1 X120.365 Y83.195 E4.0617
G1 X122.058 Y85.516 E4.1706
G1 X122.122 Y85.610 E4.1749
G1 X122.284 Y85.865 E4.1864
G1 X122.342 Y85.963 E4.1907
G1 X123.656 Y88.343 E4.2938
G1 X123.706 Y88.443 E4.2980
G1 X123.834 Y88.712 E4.3093
G1 X123.878 Y88.814 E4.3135
G1 X124.957 Y91.514 E4.4238
G1 X124.997 Y91.623 E4.4282
G1 X125.093 Y91.917 E4.4399
G1 X125.125 Y92.029 E4.4443
G1 X125.826 Y94.757 E4.5511
G1 X125.850 Y94.867 E4.5554
G1 X125.907 Y95.162 E4.5668
G1 X125.924 Y95.273 E4.5710
G1 X126.276 Y98.047 E4.6770
G1 X126.287 Y98.159 E4.6813
G1 X126.306 Y98.459 E4.6927
G1 X126.309 Y98.572 E4.6970
G1 X126.312 Y101.382 E4.8035
G1 X126.308 Y101.495 E4.8078
G1 X126.290 Y101.797 E4.8193
G1 X126.279 Y101.909 E4.8236
G1 X125.927 Y104.711 E4.9306
G1 X125.910 Y104.823 E4.9349
G1 X125.853 Y105.120 E4.9464
G1 X125.828 Y105.231 E4.9507
G1 X125.127 Y107.965 E5.0578
G1 X125.096 Y108.074 E5.0620
G1 X125.003 Y108.359 E5.0734
G1 X124.965 Y108.465 E5.0777
G1 X123.946 Y111.045 E5.1829
G1 X123.900 Y111.151 E5.1872
G1 X123.770 Y111.427 E5.1988
G1 X123.718 Y111.530 E5.2032
G1 X122.307 Y114.090 E5.3140
G1 X122.249 Y114.187 E5.3183
G1 X122.087 Y114.443 E5.3298
G1 X122.023 Y114.536 E5.3341
G1 X120.407 Y116.755 E5.4381
G1 X120.339 Y116.843 E5.4424
G1 X120.149 Y117.072 E5.4536
G1 X120.075 Y117.156 E5.4579
G1 X118.169 Y119.187 E5.5635
G1 X118.089 Y119.268 E5.5678
G1 X117.869 Y119.475 E5.5793
G1 X117.784 Y119.550 E5.5836
G1 X115.573 Y121.379 E5.6923
G1 X115.483 Y121.448 E5.6967
G1 X115.238 Y121.627 E5.7082
G1 X115.144 Y121.691 E5.7125
G1 X113.866 Y122.500 E5.7698
G1 X115.172 Y123.329 E5.8285
G1 X115.267 Y123.394 E5.8329
G1 X115.515 Y123.574 E5.8445
G1 X115.605 Y123.645 E5.8488
G1 X117.820 Y125.485 E5.9580
G1 X117.904 Y125.560 E5.9623
G1 X118.123 Y125.765 E5.9737
G1 X118.202 Y125.845 E5.9779
G1 X120.079 Y127.848 E6.0820
G1 X120.153 Y127.932 E6.0863
G1 X120.343 Y128.163 E6.0976
G1 X120.412 Y128.251 E6.1018
G1 X122.065 Y130.526 E6.2085
G1 X122.128 Y130.619 E6.2127
G1 X122.290 Y130.874 E6.2242
G1 X122.347 Y130.971 E6.2285
G1 X123.701 Y133.433 E6.3350
G1 X123.752 Y133.534 E6.3393
G1 X123.881 Y133.807 E6.3507
G1 X123.926 Y133.910 E6.3550
G1 X124.961 Y136.524 E6.4616
G1 X124.999 Y136.630 E6.4659
G1 X125.093 Y136.917 E6.4773
G1 X125.124 Y137.026 E6.4816
G1 X125.827 Y139.759 E6.5886
G1 X125.852 Y139.872 E6.5930
G1 X125.909 Y140.175 E6.6047
G1 X125.927 Y140.289 E6.6091
G1 X126.282 Y143.162 E6.7188
G1 X126.293 Y143.273 E6.7231
G1 X126.311 Y143.572 E6.7344
G1 X126.314 Y143.683 E6.7386
G1 X126.310 Y146.412 E6.8421
G1 X126.307 Y146.523 E6.8463
G1 X126.288 Y146.817 E6.8575
G1 X126.278 Y146.927 E6.8617
G1 X125.943 Y149.612 E6.9643
G1 X125.925 Y149.724 E6.9686
G1 X125.869 Y150.022 E6.9800
G1 X125.844 Y150.133 E6.9843
G1 X125.101 Y153.039 E7.0981
G1 X125.069 Y153.150 E7.1025
G1 X124.974 Y153.442 E7.1141
G1 X124.935 Y153.550 E7.1185
G1 X123.925 Y156.091 E7.2221
G1 X123.881 Y156.193 E7.2264
G1 X123.755 Y156.461 E7.2376
G1 X123.704 Y156.560 E7.2418
G1 X122.373 Y158.987 E7.3468
G1 X122.315 Y159.085 E7.3511
G1 X122.153 Y159.340 E7.3625
G1 X122.090 Y159.434 E7.3668
G1 X120.396 Y161.768 E7.4762
G1 X120.326 Y161.857 E7.4805
G1 X120.134 Y162.090 E7.4919
G1 X120.059 Y162.175 E7.4962
G1 X118.180 Y164.177 E7.6003
G1 X118.100 Y164.257 E7.6046
G1 X117.883 Y164.461 E7.6159
G1 X117.799 Y164.536 E7.6202
G1 X115.602 Y166.358 E7.7284
G1 X115.512 Y166.428 E7.7327
G1 X115.265 Y166.607 E7.7443
G1 X115.171 Y166.671 E7.7486
G1 X112.794 Y168.180 E7.8553
G1 X112.697 Y168.237 E7.8596
G1 X112.432 Y168.382 E7.8711
G1 X112.332 Y168.434 E7.8753
G1 X109.786 Y169.632 E7.9820
G1 X109.682 Y169.677 E7.9863
G1 X109.402 Y169.788 E7.9977
G1 X109.295 Y169.826 E8.0020
G1 X106.620 Y170.695 E8.1087
G1 X106.511 Y170.727 E8.1130
G1 X106.219 Y170.802 E8.1244
G1 X106.109 Y170.826 E8.1287
G1 X103.345 Y171.354 E8.2354
G1 X103.234 Y171.371 E8.2397
G1 X102.934 Y171.409 E8.2511
G1 X102.822 Y171.420 E8.2554
G1 X100.014 Y171.596 E8.3621
G1 X99.901 Y171.600 E8.3664
G1 X99.599 Y171.600 E8.3778
G1 X99.486 Y171.596 E8.3821
G1 X96.678 Y171.420 E8.4888
G1 X96.566 Y171.409 E8.4930
G1 X96.266 Y171.371 E8.5045
G1 X96.155 Y171.354 E8.5088
G1 X93.391 Y170.826 E8.6154
G1 X93.281 Y170.802 E8.6197
G1 X92.989 Y170.727 E8.6312
G1 X92.880 Y170.695 E8.6354
G1 X90.205 Y169.826 E8.7421
G1 X90.098 Y169.788 E8.7464
G1 X89.818 Y169.677 E8.7579
G1 X89.714 Y169.632 E8.7621
G1 X87.168 Y168.434 E8.8688
G1 X87.067 Y168.382 E8.8731
G1 X86.803 Y168.237 E8.8845
G1 X86.706 Y168.180 E8.8888
G1 X84.331 Y166.672 E8.9955
G1 X84.237 Y166.608 E8.9998
G1 X83.993 Y166.431 E9.0112
G1 X83.904 Y166.362 E9.0155
G1 X81.736 Y164.569 E9.1222
G1 X81.651 Y164.494 E9.1265
G1 X81.431 Y164.287 E9.1379
G1 X81.351 Y164.207 E9.1422
G1 X79.425 Y162.157 E9.2489
G1 X79.351 Y162.072 E9.2532
G1 X79.158 Y161.839 E9.2646
G1 X79.089 Y161.750 E9.2689
G1 X77.435 Y159.474 E9.3756
G1 X77.372 Y159.380 E9.3798
G1 X77.210 Y159.126 E9.3913
G1 X77.153 Y159.028 E9.3956
G1 X75.797 Y156.563 E9.5022
G1 X75.746 Y156.462 E9.5065
G1 X75.617 Y156.189 E9.5180
G1 X75.572 Y156.085 E9.5223
G1 X74.537 Y153.470 E9.6289
G1 X74.499 Y153.363 E9.6332
G1 X74.405 Y153.077 E9.6446
G1 X74.374 Y152.968 E9.6489
G1 X73.674 Y150.243 E9.7556
G1 X73.649 Y150.132 E9.7599
G1 X73.593 Y149.836 E9.7713
G1 X73.575 Y149.724 E9.7756
G1 X73.223 Y146.933 E9.8823
G1 X73.212 Y146.821 E9.8866
G1 X73.193 Y146.520 E9.8980
G1 X73.189 Y146.407 E9.9023
G1 X73.189 Y143.593 E10.0090
G1 X73.193 Y143.480 E10.0133
G1 X73.212 Y143.179 E10.0247
G1 X73.223 Y143.067 E10.0290
G1 X73.575 Y140.276 E10.1357
G1 X73.593 Y140.164 E10.1399
G1 X73.649 Y139.868 E10.1514
G1 X73.674 Y139.757 E10.1557
G1 X74.374 Y137.032 E10.2623
G1 X74.405 Y136.924 E10.2666
G1 X74.498 Y136.637 E10.2781
G1 X74.537 Y136.530 E10.2824
G1 X75.572 Y133.915 E10.3890
G1 X75.617 Y133.811 E10.3933
G1 X75.746 Y133.538 E10.4048
G1 X75.797 Y133.437 E10.4091
G1 X77.153 Y130.972 E10.5157
G1 X77.210 Y130.874 E10.5200
G1 X77.372 Y130.620 E10.5314
G1 X77.435 Y130.526 E10.5357
G1 X79.089 Y128.250 E10.6424
G1 X79.158 Y128.161 E10.6467
G1 X79.350 Y127.928 E10.6581
G1 X79.425 Y127.843 E10.6624
G1 X81.351 Y125.793 E10.7691
G1 X81.431 Y125.713 E10.7734
G1 X81.651 Y125.506 E10.7848
G1 X81.736 Y125.431 E10.7891
G1 X83.904 Y123.638 E10.8958
G1 X83.993 Y123.569 E10.9001
G1 X84.237 Y123.391 E10.9115
G1 X84.331 Y123.328 E10.9158
G1 X85.635 Y122.500 E10.9744
G1 X84.331 Y121.672 E11.0330
G1 X84.237 Y121.609 E11.0372
G1 X83.993 Y121.431 E11.0487
G1 X83.904 Y121.362 E11.0530
G1 X81.736 Y119.569 E11.1596
G1 X81.651 Y119.494 E11.1639
G1 X81.431 Y119.287 E11.1754
G1 X81.351 Y119.207 E11.1797
G1 X79.425 Y117.157 E11.2863
G1 X79.350 Y117.072 E11.2906
G1 X79.158 Y116.839 E11.3021
G1 X79.089 Y116.750 E11.3063
G1 X77.435 Y114.474 E11.4130
G1 X77.372 Y114.380 E11.4173
